;FLAVOR:Marlin
;TIME:36880
;Filament used: 26.7328m
;Layer height: 0.2
;MINX:13.959
;MINY:17.797
;MINZ:0.2
;MAXX:266.801
;MAXY:210.936
;MAXZ:26.4
;Generated with Cura_SteamEngine 4.3.0
M140 S50
M105
M190 S50
M104 S200
M105
M109 S200
M82 ;absolute extrusion mode
M201 X500.00 Y500.00 Z100.00 E5000.00 ;Setup machine max acceleration
M203 X500.00 Y500.00 Z10.00 E50.00 ;Setup machine max feedrate
M204 P500.00 R1000.00 T500.00 ;Setup Print/Retract/Travel acceleration
M205 X8.00 Y8.00 Z0.40 E5.00 ;Setup Jerk
M220 S100 ;Reset Feedrate
M221 S100 ;Reset Flowrate

G28 ;Home

G92 E0 ;Reset Extruder
G1 Z2.0 F3000 ;Move Z Axis up
G1 X10.1 Y20 Z0.28 F5000.0 ;Move to start position
G1 X10.1 Y200.0 Z0.28 F1500.0 E15 ;Draw the first line
G1 X10.4 Y200.0 Z0.28 F5000.0 ;Move to side a little
G1 X10.4 Y20 Z0.28 F1500.0 E30 ;Draw the second line
G92 E0 ;Reset Extruder
G1 Z2.0 F3000 ;Move Z Axis up

G92 E0
G92 E0
G1 F2700 E-5
;LAYER_COUNT:132
;LAYER:0
M107
G0 F6000 X29.827 Y39.398 Z0.2
;TYPE:SKIRT
G1 F2700 E0
G1 F1200 X30.681 Y38.759 E0.03548
G1 X30.807 Y38.666 E0.04068
G1 X31.355 Y38.268 E0.06321
G1 X31.793 Y37.965 E0.08092
G1 X32.352 Y37.599 E0.10315
G1 X32.517 Y37.493 E0.10967
G1 X33.389 Y36.944 E0.14394
G1 X33.513 Y36.868 E0.14878
G1 X34.133 Y36.489 E0.17295
G1 X34.64 Y36.197 E0.19241
G1 X35.147 Y35.923 E0.21158
G1 X35.283 Y35.85 E0.21671
G1 X36.263 Y35.338 E0.25349
G1 X36.4 Y35.268 E0.2586
G1 X37.032 Y34.949 E0.28215
G1 X37.505 Y34.725 E0.29956
G1 X38 Y34.504 E0.31759
G1 X38.186 Y34.422 E0.32435
G1 X39.258 Y33.967 E0.36308
G1 X39.386 Y33.914 E0.36769
G1 X40.006 Y33.66 E0.38997
G1 X40.541 Y33.457 E0.409
G1 X41.115 Y33.256 E0.42923
G1 X41.268 Y33.204 E0.43461
G1 X42.254 Y32.875 E0.46918
G1 X42.403 Y32.826 E0.4744
G1 X43.01 Y32.633 E0.49558
G1 X43.608 Y32.461 E0.51628
G1 X44.808 Y32.153 E0.55748
G1 X44.92 Y32.125 E0.56132
G1 X45.482 Y31.987 E0.58057
G1 X45.625 Y31.953 E0.58546
G1 X46.312 Y31.794 E0.60891
G1 X46.892 Y31.676 E0.6286
G1 X47.485 Y31.572 E0.64862
G1 X47.641 Y31.546 E0.65388
G1 X48.743 Y31.369 E0.69101
G1 X48.908 Y31.344 E0.69656
G1 X49.556 Y31.25 E0.71833
G1 X50.075 Y31.187 E0.73572
G1 X50.705 Y31.126 E0.75678
G1 X50.906 Y31.109 E0.76348
G1 X51.914 Y31.03 E0.79711
G1 X52.067 Y31.019 E0.80222
G1 X53.63 Y30.918 E0.85431
G1 X56.223 Y30.714 E0.94082
G1 X58.745 Y30.444 E1.02518
G1 X61.254 Y30.103 E1.1094
G1 X63.729 Y29.696 E1.19282
G1 X66.174 Y29.222 E1.27566
G1 X68.64 Y28.67 E1.35971
G1 X71.075 Y28.054 E1.44325
G1 X73.52 Y27.361 E1.52777
G1 X75.922 Y26.607 E1.6115
G1 X78.286 Y25.788 E1.69472
G1 X80.652 Y24.893 E1.77885
G1 X82.959 Y23.946 E1.8618
G1 X85.267 Y22.921 E1.94579
G1 X87.451 Y21.882 E2.02623
G1 X88.315 Y21.516 E2.05744
G1 X89.206 Y21.224 E2.08863
G1 X90.119 Y21.009 E2.11982
G1 X91.047 Y20.873 E2.15102
G1 X91.632 Y20.829 E2.17053
G1 X91.974 Y20.812 E2.18192
G1 X92.52 Y20.798 E2.20009
G1 X128.803 Y20.798 E3.40686
G1 X131.411 Y20.761 E3.49361
G1 X133.932 Y20.654 E3.57754
G1 X136.427 Y20.477 E3.66073
G1 X138.927 Y20.229 E3.74429
G1 X141.42 Y19.91 E3.82788
G1 X143.913 Y19.519 E3.91181
G1 X146.378 Y19.06 E3.99521
G1 X149.613 Y18.351 E4.10536
G1 X150.616 Y18.112 E4.13965
G1 X151.537 Y17.933 E4.17086
G1 X152.879 Y17.816 E4.21566
G1 X153.452 Y17.801 E4.23473
G1 X153.74 Y17.797 E4.24431
G1 X254.483 Y17.797 E7.59503
G1 X254.644 Y17.798 E7.60039
G1 X255.26 Y17.807 E7.62088
G1 X255.573 Y17.816 E7.63129
G1 X255.828 Y17.827 E7.63978
G1 X256.762 Y17.908 E7.67097
G1 X257.689 Y18.068 E7.70225
G1 X258.108 Y18.159 E7.71651
G1 X259.015 Y18.397 E7.7477
G1 X259.898 Y18.711 E7.77887
G1 X260.752 Y19.099 E7.81007
G1 X261.569 Y19.559 E7.84126
G1 X262.345 Y20.087 E7.87247
G1 X263.072 Y20.679 E7.90366
G1 X263.747 Y21.33 E7.93485
G1 X264.363 Y22.037 E7.96604
G1 X264.917 Y22.794 E7.99724
G1 X265.405 Y23.595 E8.02843
G1 X265.822 Y24.435 E8.05962
G1 X266.167 Y25.307 E8.09081
G1 X266.436 Y26.206 E8.12202
G1 X266.627 Y27.124 E8.15321
G1 X266.74 Y28.055 E8.1844
G1 X266.771 Y28.708 E8.20615
G1 X266.784 Y29.424 E8.22997
G1 X266.786 Y29.596 E8.23569
G1 X266.801 Y35.55 E8.43372
G1 X266.801 Y35.624 E8.43618
G1 X266.784 Y39.647 E8.56999
G1 X266.785 Y92.459 E10.32652
G1 X266.801 Y96.298 E10.45421
G1 X266.801 Y96.37 E10.4566
G1 X266.787 Y102.027 E10.64475
G1 X266.786 Y102.178 E10.64978
G1 X266.775 Y102.859 E10.67243
G1 X266.719 Y103.795 E10.70362
G1 X266.585 Y104.723 E10.7348
G1 X266.372 Y105.636 E10.76598
G1 X266.081 Y106.528 E10.79719
G1 X265.716 Y107.392 E10.82839
G1 X265.279 Y108.222 E10.85959
G1 X265 Y108.674 E10.87725
G1 X264.514 Y109.422 E10.90692
G1 X264.395 Y109.602 E10.9141
G1 X263.831 Y110.434 E10.94753
G1 X262.496 Y112.529 E11.03015
G1 X261.189 Y114.713 E11.11481
G1 X259.968 Y116.889 E11.1978
G1 X258.792 Y119.133 E11.28206
G1 X257.693 Y121.385 E11.36541
G1 X256.65 Y123.683 E11.44934
G1 X255.67 Y126.012 E11.53338
G1 X254.751 Y128.382 E11.61793
G1 X253.93 Y130.701 E11.69975
G1 X253.141 Y133.138 E11.78495
G1 X252.448 Y135.504 E11.86695
G1 X251.794 Y138 E11.95277
G1 X251.238 Y140.392 E12.03445
G1 X250.727 Y142.912 E12.11997
G1 X250.301 Y145.382 E12.20333
G1 X249.944 Y147.856 E12.28647
G1 X249.656 Y150.342 E12.36971
G1 X249.435 Y152.888 E12.45471
G1 X249.29 Y155.371 E12.53743
G1 X249.214 Y157.894 E12.62139
G1 X249.209 Y160.423 E12.7055
G1 X249.275 Y162.944 E12.78938
G1 X249.372 Y164.858 E12.85312
G1 X249.379 Y165.796 E12.88432
G1 X249.307 Y166.731 E12.91551
G1 X249.155 Y167.656 E12.94669
G1 X248.925 Y168.565 E12.97787
G1 X248.618 Y169.452 E13.00909
G1 X248.197 Y170.387 E13.0432
G1 X247.942 Y170.89 E13.06196
G1 X247.844 Y171.079 E13.06904
G1 X235.519 Y194.268 E13.94248
G1 X235.442 Y194.41 E13.94785
G1 X235.088 Y195.053 E13.97226
G1 X234.601 Y195.855 E14.00347
G1 X234.048 Y196.612 E14.03465
G1 X233.432 Y197.319 E14.06584
G1 X232.758 Y197.971 E14.09703
G1 X232.031 Y198.564 E14.12823
G1 X231.256 Y199.092 E14.15942
G1 X230.439 Y199.553 E14.19062
G1 X229.586 Y199.942 E14.22181
G1 X228.702 Y200.257 E14.25302
G1 X227.795 Y200.496 E14.28422
G1 X226.871 Y200.656 E14.31541
G1 X225.649 Y200.746 E14.35616
G1 X224.757 Y200.762 E14.38583
G1 X224.56 Y200.764 E14.39239
G1 X154.366 Y200.764 E16.72705
G1 X151.758 Y200.801 E16.8138
G1 X149.236 Y200.908 E16.89776
G1 X146.741 Y201.085 E16.98095
G1 X144.243 Y201.333 E17.06444
G1 X141.754 Y201.651 E17.1479
G1 X139.245 Y202.045 E17.23237
G1 X136.779 Y202.504 E17.3158
G1 X134.328 Y203.031 E17.39918
G1 X131.868 Y203.634 E17.48342
G1 X129.434 Y204.304 E17.56739
G1 X127.055 Y205.032 E17.65014
G1 X124.652 Y205.843 E17.73449
G1 X122.282 Y206.717 E17.81851
G1 X119.967 Y207.646 E17.90147
G1 X117.052 Y208.925 E18.00735
G1 X115.907 Y209.45 E18.04924
G1 X115.434 Y209.654 E18.06638
G1 X115.248 Y209.729 E18.07305
G1 X114.652 Y209.949 E18.09418
G1 X114.252 Y210.084 E18.10822
G1 X113.445 Y210.323 E18.13621
G1 X113.036 Y210.427 E18.15025
G1 X112.096 Y210.622 E18.18218
G1 X111.428 Y210.731 E18.20469
G1 X110.398 Y210.85 E18.23918
G1 X109.717 Y210.896 E18.26188
G1 X109.34 Y210.915 E18.27443
G1 X109.008 Y210.926 E18.28548
G1 X108.645 Y210.932 E18.29756
G1 X75.736 Y210.936 E19.39211
G1 X75.576 Y210.935 E19.39744
G1 X74.677 Y210.922 E19.42734
G1 X74.175 Y210.903 E19.44405
G1 X73.843 Y210.883 E19.45511
G1 X73.164 Y210.821 E19.47779
G1 X72.569 Y210.748 E19.49773
G1 X71.818 Y210.629 E19.52302
G1 X71.472 Y210.562 E19.53474
G1 X70.805 Y210.412 E19.55748
G1 X70.442 Y210.318 E19.56995
G1 X69.546 Y210.045 E19.6011
G1 X68.961 Y209.839 E19.62173
G1 X67.874 Y209.389 E19.66086
G1 X67.336 Y209.132 E19.68069
G1 X66.666 Y208.783 E19.70582
G1 X66.489 Y208.683 E19.71258
G1 X66.08 Y208.44 E19.7284
G1 X65.74 Y208.228 E19.74173
G1 X64.97 Y207.702 E19.77274
G1 X64.549 Y207.387 E19.79023
G1 X63.9 Y206.861 E19.81802
G1 X63.479 Y206.493 E19.83661
G1 X63.225 Y206.264 E19.84799
G1 X62.923 Y205.983 E19.86171
G1 X62.639 Y205.709 E19.87483
G1 X39.336 Y182.411 E20.97082
G1 X39.239 Y182.313 E20.97541
G1 X38.643 Y181.702 E21.00379
G1 X38.249 Y181.276 E21.02309
G1 X37.984 Y180.974 E21.03646
G1 X37.577 Y180.483 E21.05767
G1 X37.269 Y180.088 E21.07433
G1 X37.034 Y179.774 E21.08737
G1 X36.916 Y179.611 E21.09407
G1 X36.418 Y178.86 E21.12404
G1 X36.103 Y178.34 E21.14426
G1 X35.566 Y177.342 E21.18195
G1 X35.315 Y176.811 E21.20149
G1 X34.907 Y175.826 E21.23695
G1 X34.762 Y175.422 E21.25122
G1 X34.493 Y174.565 E21.2811
G1 X34.328 Y173.952 E21.30221
G1 X34.098 Y172.89 E21.33835
G1 X33.994 Y172.262 E21.35953
G1 X33.872 Y171.227 E21.39419
G1 X33.844 Y170.824 E21.40762
G1 X33.822 Y170.347 E21.42351
G1 X33.789 Y169.074 E21.46586
G1 X33.785 Y168.789 E21.47534
G1 X33.785 Y140.657 E22.41102
G1 X33.748 Y138.048 E22.4978
G1 X33.641 Y135.526 E22.58176
G1 X33.464 Y133.032 E22.66492
G1 X33.217 Y130.537 E22.74831
G1 X32.897 Y128.036 E22.83217
G1 X32.506 Y125.547 E22.91597
G1 X32.044 Y123.064 E22.99997
G1 X31.518 Y120.619 E23.08315
G1 X30.913 Y118.149 E23.16773
G1 X30.251 Y115.743 E23.25073
G1 X29.51 Y113.325 E23.33485
G1 X28.703 Y110.933 E23.41881
G1 X27.84 Y108.593 E23.50176
G1 X26.896 Y106.24 E23.58609
G1 X25.899 Y103.948 E23.66922
G1 X24.813 Y101.634 E23.75424
G1 X23.692 Y99.407 E23.83716
G1 X22.494 Y97.188 E23.92104
G1 X21.223 Y94.986 E24.0056
G1 X20.137 Y93.209 E24.07487
G1 X20.068 Y93.095 E24.0793
G1 X19.748 Y92.557 E24.10012
G1 X19.668 Y92.421 E24.10537
G1 X19.154 Y91.528 E24.13964
G1 X19.073 Y91.384 E24.14513
G1 X18.714 Y90.738 E24.16971
G1 X18.47 Y90.273 E24.18718
G1 X18.232 Y89.792 E24.20503
G1 X18.144 Y89.61 E24.21175
G1 X17.653 Y88.57 E24.25
G1 X17.584 Y88.421 E24.25546
G1 X17.298 Y87.791 E24.27848
G1 X17.089 Y87.3 E24.29622
G1 X16.851 Y86.7 E24.31769
G1 X16.787 Y86.533 E24.32364
G1 X16.409 Y85.533 E24.3592
G1 X16.346 Y85.364 E24.3652
G1 X16.116 Y84.724 E24.38782
G1 X15.95 Y84.223 E24.40537
G1 X15.789 Y83.697 E24.42367
G1 X15.737 Y83.523 E24.42971
G1 X15.425 Y82.44 E24.46719
G1 X15.38 Y82.278 E24.47279
G1 X15.185 Y81.56 E24.49753
G1 X15.05 Y81.009 E24.5164
G1 X14.927 Y80.442 E24.5357
G1 X14.897 Y80.298 E24.54059
G1 X14.677 Y79.214 E24.57738
G1 X14.65 Y79.075 E24.58209
G1 X14.522 Y78.4 E24.60494
G1 X14.427 Y77.813 E24.62472
G1 X14.353 Y77.261 E24.64324
G1 X14.333 Y77.106 E24.64844
G1 X14.201 Y76.003 E24.68539
G1 X14.183 Y75.847 E24.69061
G1 X14.106 Y75.115 E24.71509
G1 X14.062 Y74.552 E24.73387
G1 X14.031 Y73.973 E24.75316
G1 X14.023 Y73.804 E24.75878
G1 X13.981 Y72.702 E24.79546
G1 X13.976 Y72.548 E24.80059
G1 X13.959 Y71.843 E24.82404
G1 X13.96 Y71.295 E24.84227
G1 X13.975 Y70.713 E24.86163
G1 X13.981 Y70.534 E24.86759
G1 X14.027 Y69.44 E24.90401
G1 X14.035 Y69.28 E24.90934
G1 X14.076 Y68.556 E24.93346
G1 X14.123 Y67.983 E24.95258
G1 X14.188 Y67.388 E24.97249
G1 X14.205 Y67.24 E24.97744
G1 X14.337 Y66.167 E25.0134
G1 X14.358 Y66.01 E25.01867
G1 X14.453 Y65.32 E25.04183
G1 X14.542 Y64.773 E25.06027
G1 X14.656 Y64.171 E25.08064
G1 X14.692 Y63.99 E25.08678
G1 X14.91 Y62.936 E25.12258
G1 X14.94 Y62.794 E25.12741
G1 X15.092 Y62.105 E25.15087
G1 X15.22 Y61.586 E25.16865
G1 X15.367 Y61.046 E25.18727
G1 X15.422 Y60.851 E25.19401
G1 X15.729 Y59.8 E25.23042
G1 X15.769 Y59.665 E25.23511
G1 X15.993 Y58.933 E25.26057
G1 X16.179 Y58.38 E25.27997
G1 X16.367 Y57.865 E25.29821
G1 X16.421 Y57.72 E25.30335
G1 X16.828 Y56.652 E25.34137
G1 X16.879 Y56.52 E25.34607
G1 X17.128 Y55.891 E25.36857
G1 X17.367 Y55.334 E25.38873
G1 X17.646 Y54.729 E25.41089
G1 X17.707 Y54.598 E25.4157
G1 X18.135 Y53.701 E25.44876
G1 X18.203 Y53.561 E25.45393
G1 X18.526 Y52.908 E25.47816
G1 X18.783 Y52.42 E25.49651
G1 X19.107 Y51.84 E25.5186
G1 X19.194 Y51.688 E25.52443
G1 X19.71 Y50.798 E25.55865
G1 X19.794 Y50.656 E25.56413
G1 X20.163 Y50.041 E25.58799
G1 X20.464 Y49.566 E25.60669
G1 X20.814 Y49.045 E25.62757
G1 X20.904 Y48.914 E25.63285
G1 X21.493 Y48.064 E25.66725
G1 X21.583 Y47.935 E25.67248
G1 X22.003 Y47.347 E25.69651
G1 X22.328 Y46.915 E25.71449
G1 X22.692 Y46.455 E25.734
G1 X22.808 Y46.311 E25.74015
G1 X23.469 Y45.504 E25.77485
G1 X23.568 Y45.385 E25.78
G1 X24.072 Y44.787 E25.80601
G1 X24.451 Y44.36 E25.825
G1 X24.888 Y43.893 E25.84627
G1 X25.003 Y43.772 E25.85182
G1 X25.712 Y43.037 E25.88579
G1 X25.827 Y42.919 E25.89127
G1 X26.322 Y42.421 E25.91462
G1 X26.692 Y42.067 E25.93166
G1 X27.147 Y41.65 E25.95218
G1 X27.305 Y41.507 E25.95927
G1 X28.09 Y40.815 E25.99408
G1 X28.211 Y40.71 E25.9994
G1 X28.78 Y40.223 E26.02432
G1 X29.196 Y39.885 E26.04214
G1 X29.68 Y39.51 E26.06251
G1 X29.827 Y39.398 E26.06865
G0 F6000 X30.067 Y39.718
G1 F1200 X30.921 Y39.079 E26.10413
G1 X31.042 Y38.989 E26.10914
G1 X31.59 Y38.591 E26.13167
G1 X32.013 Y38.3 E26.14875
G1 X32.572 Y37.934 E26.17097
G1 X32.73 Y37.832 E26.17723
G1 X33.602 Y37.283 E26.2115
G1 X33.721 Y37.209 E26.21616
G1 X34.341 Y36.83 E26.24033
G1 X34.83 Y36.549 E26.25909
G1 X35.337 Y36.275 E26.27825
G1 X35.469 Y36.205 E26.28322
G1 X36.449 Y35.693 E26.32
G1 X36.581 Y35.625 E26.32494
G1 X37.213 Y35.306 E26.34848
G1 X37.668 Y35.09 E26.36524
G1 X38.163 Y34.869 E26.38327
G1 X38.343 Y34.791 E26.38979
G1 X39.415 Y34.336 E26.42852
G1 X39.538 Y34.284 E26.43297
G1 X40.158 Y34.03 E26.45525
G1 X40.673 Y33.835 E26.47357
G1 X41.247 Y33.634 E26.49379
G1 X41.395 Y33.583 E26.499
G1 X42.381 Y33.254 E26.53357
G1 X42.524 Y33.207 E26.53858
G1 X43.131 Y33.014 E26.55976
G1 X43.708 Y32.849 E26.57972
G1 X44.908 Y32.541 E26.62093
G1 X45.015 Y32.514 E26.6246
G1 X45.577 Y32.376 E26.64385
G1 X45.715 Y32.343 E26.64857
G1 X46.402 Y32.184 E26.67202
G1 X46.961 Y32.07 E26.691
G1 X47.554 Y31.966 E26.71102
G1 X47.704 Y31.941 E26.71608
G1 X48.806 Y31.764 E26.7532
G1 X48.965 Y31.74 E26.75855
G1 X49.613 Y31.646 E26.78033
G1 X50.113 Y31.585 E26.79708
G1 X50.743 Y31.524 E26.81813
G1 X50.937 Y31.507 E26.82461
G1 X51.945 Y31.428 E26.85824
G1 X52.092 Y31.418 E26.86314
G1 X53.693 Y31.315 E26.9165
G1 X56.258 Y31.113 E27.00208
G1 X58.809 Y30.84 E27.08741
G1 X61.301 Y30.501 E27.17105
G1 X63.765 Y30.096 E27.25411
G1 X66.265 Y29.611 E27.33881
G1 X68.753 Y29.054 E27.42361
G1 X71.186 Y28.439 E27.50707
G1 X73.625 Y27.748 E27.59139
G1 X76.046 Y26.987 E27.6758
G1 X78.41 Y26.168 E27.75901
G1 X80.809 Y25.261 E27.84431
G1 X83.108 Y24.317 E27.92697
G1 X85.439 Y23.282 E28.0118
G1 X87.623 Y22.243 E28.09224
G1 X88.471 Y21.884 E28.12287
G1 X89.347 Y21.6 E28.1535
G1 X90.244 Y21.393 E28.18412
G1 X91.155 Y21.264 E28.21472
G1 X91.652 Y21.228 E28.23129
G1 X91.994 Y21.211 E28.24268
G1 X92.52 Y21.198 E28.26018
G1 X128.809 Y21.198 E29.46716
G1 X131.434 Y21.161 E29.55447
G1 X133.942 Y21.054 E29.63797
G1 X136.462 Y20.876 E29.72199
G1 X138.977 Y20.627 E29.80605
G1 X141.466 Y20.308 E29.88951
G1 X144.018 Y19.907 E29.97543
G1 X146.441 Y19.457 E30.0574
G1 X149.682 Y18.746 E30.16776
G1 X150.709 Y18.501 E30.20288
G1 X151.613 Y18.327 E30.23349
G1 X152.89 Y18.216 E30.27613
G1 X153.463 Y18.201 E30.29519
G1 X153.74 Y18.197 E30.30441
G1 X254.483 Y18.197 E33.65513
G1 X254.638 Y18.198 E33.66029
G1 X255.254 Y18.207 E33.68078
G1 X255.556 Y18.216 E33.69083
G1 X255.811 Y18.227 E33.69932
G1 X256.728 Y18.306 E33.72993
G1 X257.604 Y18.458 E33.7595
G1 X258.023 Y18.549 E33.77376
G1 X258.913 Y18.784 E33.80438
G1 X259.78 Y19.094 E33.835
G1 X260.616 Y19.479 E33.86561
G1 X261.416 Y19.935 E33.89624
G1 X262.173 Y20.458 E33.92684
G1 X262.882 Y21.046 E33.95748
G1 X263.538 Y21.692 E33.9881
G1 X264.135 Y22.393 E34.01873
G1 X264.668 Y23.143 E34.04933
G1 X265.135 Y23.937 E34.07997
G1 X265.531 Y24.768 E34.11058
G1 X265.854 Y25.63 E34.1412
G1 X266.1 Y26.517 E34.17182
G1 X266.268 Y27.423 E34.20246
G1 X266.371 Y28.716 E34.2456
G1 X266.384 Y29.432 E34.26942
G1 X266.386 Y29.597 E34.27491
G1 X266.401 Y35.551 E34.47294
G1 X266.401 Y35.623 E34.47534
G1 X266.384 Y39.646 E34.60914
G1 X266.385 Y92.459 E36.36571
G1 X266.401 Y96.299 E36.49343
G1 X266.401 Y96.369 E36.49576
G1 X266.387 Y102.026 E36.68391
G1 X266.386 Y102.171 E36.68874
G1 X266.375 Y102.852 E36.71139
G1 X266.32 Y103.771 E36.74201
G1 X266.185 Y104.682 E36.77264
G1 X265.973 Y105.578 E36.80326
G1 X265.683 Y106.452 E36.83389
G1 X265.318 Y107.297 E36.86451
G1 X264.665 Y108.456 E36.90875
G1 X264.179 Y109.204 E36.93842
G1 X264.064 Y109.377 E36.94533
G1 X263.506 Y110.2 E36.9784
G1 X262.149 Y112.329 E37.06237
G1 X260.84 Y114.517 E37.14718
G1 X259.614 Y116.702 E37.23051
G1 X258.435 Y118.95 E37.31494
G1 X257.341 Y121.193 E37.39794
